X:1
T:Fire Force Op 1
T:Fire Force Op 1
L:1/8
Q:1/4=90
M:4/4
K:A
V:1 treble nm="Flute" snm="Fl."
V:1
!mf! (e'/b/)(b/c'/) (c'/b/)b/ z/ (g/b/)(b/c'/) (c'/b/)b/ z/ | %1
 (e'/b/)(b/c'/) (c'/b/)b/ z/ b/b/ z e'/b/ z |!p! f/gfgc'b3/2 a/g z/ | %3
 e/g/g/g/ g/gg/ f/f/f/g/ e/e/ z/!mp! e/ | f/gfgc'b3/2 a/g z/ | %5
 e/g/g/g/ g/g/g/g/ g/f/e/ z/ f/e/ z/ e/ | f/gfgc'b3/2 a/g z/ | %7
 e/g/g/g/ g/g/g/g/ f/f/g/g/>e/e/ z/!mf! e/ | f/gfgc'b3/2 a/.g z/ | %9
 e/g/g/g/ g/g/g/g/ g/f/e/ z/ z/ z/ B | eeeB B2 BB | fffe e2 ef | c'bga ggfe | (f2 _e2) g2 z2 | z8 | %15
!f! c<e c<e c'<b f<e | c'<b f<e f<g z2 | c<e c<e c'<b f<e | c'<b f<e f<e z2 | %19
!mf! c<e c<e c'<b f<e | c'<b f<e f/ g2 z/ f- | f e2 b2 g2 f- | f e2 f2 e2!f! B- | Befg eagf | %24
 eagf ee/ z/ z z |!p! c<e c<e c'<b f<e | c'<b f<e f<g g<f | e<e c<e c<B e<e | f<g g<f e<e z/ z3/2 | %29
!f! c<e c<e c'<b f<e | e'<_e' c'<b c'/ b2 f3/2- | f/ e2 b2 g2 f3/2- | f/ e2 f2 e2 B3/2- | %33
 B/efgeagfe/- | e/agfee z/ z2 | z8 |] %36

